fs/bed_20_regular.svg

<svg viewBox="0 0 20 20" fill="none" xmlns="http://www.w3.org/2000/svg" height="1em" width="1em">
  <path d="M13.5 3C14.8255 3 15.91 4.03154 15.9947 5.33562L16 5.5L16.0004 8.0501C17.087 8.27086 17.9176 9.19636 17.9942 10.3287L18 10.5V16.5C18 16.7761 17.7761 17 17.5 17C17.2545 17 17.0504 16.8231 17.0081 16.5899L17 16.5V14H3V16.5C3 16.7761 2.77614 17 2.5 17C2.25454 17 2.05039 16.8231 2.00806 16.5899L2 16.5V10.5C2 9.29032 2.85917 8.28131 4.00057 8.04989L4 5.5C4 4.17452 5.03154 3.08996 6.33562 3.00532L6.5 3H13.5ZM15.5 9H4.5C3.7203 9 3.07955 9.59489 3.00687 10.3555L3 10.5V13H17V10.5C17 9.7203 16.4051 9.07955 15.6445 9.00687L15.5 9ZM13.5 4H6.5C5.7203 4 5.07955 4.59489 5.00687 5.35554L5 5.5V8H6V7.5C6 7.22386 6.22386 7 6.5 7H9C9.27614 7 9.5 7.22386 9.5 7.5V8H10.5V7.5C10.5 7.22386 10.7239 7 11 7H13.5C13.7761 7 14 7.22386 14 7.5V8H15V5.5C15 4.7203 14.4051 4.07955 13.6445 4.00687L13.5 4Z" fill="#212121"/>
</svg>

<svg viewBox="0 0 20 20" fill="none" xmlns="http://www.w3.org/2000/svg" height="1em" width="1em">
  <path d="M13.5 3a2.5 2.5 0 0 1 2.495 2.336L16 5.5v2.55a2.501 2.501 0 0 1 1.994 2.279L18 10.5v6a.5.5 0 0 1-.992.09L17 16.5V14H3v2.5a.5.5 0 0 1-.992.09L2 16.5v-6a2.5 2.5 0 0 1 2-2.45V5.5a2.5 2.5 0 0 1 2.336-2.495L6.5 3h7Zm2 6h-11a1.5 1.5 0 0 0-1.493 1.355L3 10.5V13h14v-2.5a1.5 1.5 0 0 0-1.355-1.493L15.5 9Zm-2-5h-7a1.5 1.5 0 0 0-1.493 1.356L5 5.5V8h1v-.5a.5.5 0 0 1 .5-.5H9a.5.5 0 0 1 .5.5V8h1v-.5A.5.5 0 0 1 11 7h2.5a.5.5 0 0 1 .5.5V8h1V5.5a1.5 1.5 0 0 0-1.355-1.493L13.5 4Z" fill="#212121"/>
</svg>
